raw-svg/chart-bar.svg

<svg viewBox="0 0 24 24" xmlns="http://www.w3.org/2000/svg"><path d="m4.5 20.25a.76.76 0 0 1 -.75-.75v-15a.75.75 0 0 1 1.5 0v15a.76.76 0 0 1 -.75.75z"/><path d="m19.5 20.25h-15a.75.75 0 0 1 0-1.5h15a.75.75 0 0 1 0 1.5z"/><path d="m8 16.75a.76.76 0 0 1 -.75-.75v-4a.75.75 0 0 1 1.5 0v4a.76.76 0 0 1 -.75.75z"/><path d="m11.5 16.75a.76.76 0 0 1 -.75-.75v-8a.75.75 0 0 1 1.5 0v8a.76.76 0 0 1 -.75.75z"/><path d="m15 16.75a.76.76 0 0 1 -.75-.75v-4a.75.75 0 0 1 1.5 0v4a.76.76 0 0 1 -.75.75z"/><path d="m18.5 16.75a.76.76 0 0 1 -.75-.75v-8a.75.75 0 0 1 1.5 0v8a.76.76 0 0 1 -.75.75z"/></svg>

<svg xmlns="http://www.w3.org/2000/svg" viewBox="0 0 24 24"><g id="chart-bar"><path d="M4.5,20.25a.76.76,0,0,1-.75-.75V4.5a.75.75,0,0,1,1.5,0v15A.76.76,0,0,1,4.5,20.25Z"/><path d="M19.5,20.25H4.5a.75.75,0,0,1,0-1.5h15a.75.75,0,0,1,0,1.5Z"/><path d="M8,16.75A.76.76,0,0,1,7.25,16V12a.75.75,0,0,1,1.5,0v4A.76.76,0,0,1,8,16.75Z"/><path d="M11.5,16.75a.76.76,0,0,1-.75-.75V8a.75.75,0,0,1,1.5,0v8A.76.76,0,0,1,11.5,16.75Z"/><path d="M15,16.75a.76.76,0,0,1-.75-.75V12a.75.75,0,0,1,1.5,0v4A.76.76,0,0,1,15,16.75Z"/><path d="M18.5,16.75a.76.76,0,0,1-.75-.75V8a.75.75,0,0,1,1.5,0v8A.76.76,0,0,1,18.5,16.75Z"/></g></svg>
